!!!OTL: STEHE ICH AM EISENGITTER
!!!ARE: Europa, Mitteleuropa, Deutschland, Hessen, Dillkreis; Westerwald;
!!    Rheingau
!!!SCT: E0727A
!!!YEM: Copyright 1995, estate of Helmut Schaffrath.
**kern
*ICvox
*Ivox
*M4/4
*k[b-]
*F:
=1
{4.a
8a
8b-
8a
8g
8f
=2
8e
8g
4b-
2r}
=3
{4.b-
8b-
8dd
8dd
8cc
8b-
=4
2a
2r}
=5
{4.cc
8a
8ff
8ee
8dd
8cc
=6
8g
8b-
4dd
2r}
=7
{4.cc
8a
8dd
8cc
8b-
8cc
=8
2a
2r}
==
!!!AGN: Liebes - Lied, Leid, Klage, Kerker - Lied
!!!ONB: ESAC (Essen Associative Code) Database: ERK2
!!!AMT: simple quadruple
!!!AIN: vox
!!!EED: Helmut Schaffrath
!!!EEV: 1.0
*-
